src/main/content/img/Footer_TwitterBird_Hover.svg

<?xml version="1.0" encoding="UTF-8"?>
<svg width="45px" height="45px" viewBox="0 0 45 45" version="1.1" xmlns="http://www.w3.org/2000/svg" xmlns:xlink="http://www.w3.org/1999/xlink">
    <!-- Generator: Sketch 50.2 (55047) - http://www.bohemiancoding.com/sketch -->
    <title>Group 4</title>
    <desc>Created with Sketch.</desc>
    <defs></defs>
    <g id="V2_Navigation" stroke="none" stroke-width="1" fill="none" fill-rule="evenodd">
        <g id="Final_tablet_Footer--SuggestedHoverState" transform="translate(-530.000000, -63.000000)">
            <g id="Group-4" transform="translate(531.000000, 64.000000)">
                <circle id="Oval-6" stroke="#5E6B8D" fill="#5D6A8E" cx="21.5" cy="21.5" r="21.5"></circle>
                <path d="M25.8269925,11.4210597 C23.1664277,12.3385597 21.48475,14.7028255 21.6755075,17.290524 L21.7390933,18.28884 L20.6748674,18.1668236 C16.8011521,17.6977736 13.4160436,16.1083911 10.541295,13.4382919 L9.13571365,12.1135424 L8.77595175,13.0912583 C8.00957523,15.2717072 8.4998554,17.5757572 10.0961943,19.1255239 C10.9479096,19.9812234 10.7554789,20.1032398 9.28798496,19.594574 C8.77762506,19.4313573 8.32917767,19.3093409 8.28734489,19.3711414 C8.13842019,19.5137579 8.6487801,21.3677734 9.0537214,22.1030411 C9.60758739,23.1235419 10.7353991,24.1202733 11.9703028,24.7129243 L13.0144489,25.1819744 L11.777872,25.1994053 C10.5864744,25.1994053 10.5429683,25.2200055 10.6718133,25.6494398 C11.0968343,26.9741893 12.778512,28.3813395 14.6526205,28.9930062 L15.9728631,29.4208559 L14.8232983,30.0737229 C13.1198675,31.0134076 11.1185874,31.5426736 9.11730722,31.5807047 C8.15849993,31.6013048 7.37037037,31.6821209 7.37037037,31.7439214 C7.37037037,31.9467539 9.96902261,33.0876864 11.4783493,33.537721 C16.0130225,34.8624705 21.3994112,34.2904195 25.4438042,32.0291545 C28.3185528,30.4191719 31.1916281,27.2182221 32.5336236,24.1186886 C33.2581674,22.4690903 33.9810378,19.4519574 33.9810378,18.0051915 C33.9810378,17.0670914 34.0446236,16.945075 35.2360212,15.8247426 C35.9388118,15.1718756 36.5980964,14.4587927 36.7269414,14.2559603 C36.9411252,13.8677263 36.9176989,13.8677263 35.8333932,14.2147599 C34.0245439,14.8264266 33.7685273,14.7456105 34.6637487,13.8281106 C35.3230333,13.1752436 36.1111629,11.9931107 36.1111629,11.6476616 C36.1111629,11.5874457 35.7915605,11.688862 35.4301252,11.8710942 C35.046937,12.0755113 34.1952216,12.3813447 33.5560167,12.5635769 L32.406452,12.9106106 L31.3639791,12.2355588 C30.7883601,11.8695096 29.9818241,11.4606754 29.5551298,11.338659 C28.4674775,11.0534259 26.8075528,11.0946262 25.8269925,11.4210597 Z" id="Combined-Shape-Copy-7" fill="#F7F8F8" fill-rule="nonzero"></path>
            </g>
        </g>
    </g>
</svg>

<svg width="45" height="45" xmlns="http://www.w3.org/2000/svg"><g transform="translate(1 1)" fill="none" fill-rule="evenodd"><circle stroke="#5E6B8D" fill="#5D6A8E" cx="21.5" cy="21.5" r="21.5"/><path d="M25.827 11.421c-2.66.918-4.342 3.282-4.151 5.87l.063.998-1.064-.122c-3.874-.47-7.259-2.059-10.134-4.729l-1.405-1.324-.36.977c-.766 2.18-.276 4.485 1.32 6.035.852.855.66.977-.808.469-.51-.164-.959-.286-1-.224-.15.143.36 1.997.766 2.732.554 1.02 1.681 2.017 2.916 2.61l1.044.469-1.236.017c-1.192 0-1.235.021-1.106.45.425 1.325 2.107 2.732 3.98 3.344l1.32.428-1.149.653c-1.703.94-3.704 1.469-5.706 1.507-.959.02-1.747.101-1.747.163 0 .203 2.599 1.344 4.108 1.794 4.535 1.324 9.921.752 13.966-1.509 2.875-1.61 5.748-4.81 7.09-7.91.724-1.65 1.447-4.667 1.447-6.114 0-.938.064-1.06 1.255-2.18.703-.653 1.362-1.366 1.49-1.569.215-.388.192-.388-.893-.041-1.808.611-2.064.53-1.17-.387.66-.653 1.448-1.835 1.448-2.18 0-.06-.32.04-.68.223-.384.205-1.236.51-1.875.693l-1.15.347-1.042-.675c-.576-.366-1.382-.775-1.809-.897-1.088-.286-2.747-.244-3.728.082z" fill="#F7F8F8" fill-rule="nonzero"/></g></svg>
